X:37
T:Song for Keo
R:Reel
C:François Champs
Z:Gwen 2021-03
M:2/2
Q:1/2=75
K:A
|: BAAG A2BA | AGAB cAAG | A2cA AEFA | ded2- dEFA |
   dedc BAGB | B/B/BB2 cde2- |1 efed cAeA | dAcA Bcde :|2 ecde cdEF | GABA Bcde
|: FAde d3E  | FAde d2GB | ded2- dFGB | ded2 =GAdA |
   cABA FAGB | B/B/BB2 cde2- |1 ecde cdEF | GABA Bcde :|2 efed cAeA | dAcA Bcde ||

